X:5
T: Alternate B part for Half Past Four (in plain old A major)
%%vskip -.2cm
M: 4/4
L: 1/8
R: reel
K:A
"A"A2 cA dAcA| "E"BAGA BcdB| "A"A2 cA dAcA|"E"BAGB "A"A3 A-|
A2 cA dAcA|"E" BAGA Bc d2|"A"e3 e- efec|[1"E"BAGB "A"A3 A:|[2 "E"BAGB "A"A4||
%%scale .5
%%text 4/28/12 For use only by Roaring Jelly members
